X:1
T:Title
%%score { ( 1 3 ) | ( 2 4 ) }
L:1/8
Q:1/4=84
M:6/8
K:G
V:1 treble nm="Grand Piano"
V:3 treble 
V:2 bass 
V:4 bass 
V:1
 [DB][CA][CG] [B,G]2 [DF] | EFG D2 B | c2 B A2 [GA] | [FA]6 | BAG G2 [DF] | EFG D2 [B,G] | %6
w: Chas.~E.~Ferguson * * * *||||||
 A2 A B2 A | G6 | ddd e2 d | B6 | [Ec][Ec][Ec] [Ec]2 [EG] | B6 | [EG][EG][EG] [EG]2 [CE] | %13
w: |||||||
[M:15/16] [B,D]->[B,D][B,G][DB]3/2- [DB]3 |[M:3/4] AA A B2 A | G6 |] %16
w: |||
V:2
 [G,,G,][G,,G,][G,,G,] [G,,G,]2 [B,,G,] | [C,G,C][D,G,C][E,G,C] [G,B,]2[K:treble] [G,DG] | %2
 [A,DF]2 [G,DG][K:bass] [F,D]2 [E,^C] | [D,D]6 | [G,DG][G,CD][K:bass][G,B,D] [G,B,]2 [B,,G,] | %5
 [C,G,C][D,G,C][E,G,C] [G,B,]2 [G,,G,] | [D,F,D]2 [D,F,D] [D,G,D]2 [D,CD] | [G,B,D]6 | %8
 [G,B,G][G,B,G][G,B,G] [G,CG]2 [G,B,G] | [DG]2 D .D3 | [C,C][C,C][C,C] [C,G,]2 [C,E,] | .F,3 z3 | %12
 [C,E,][C,G,][C,C] [C,C]2 [C,G,] |[M:15/16] [G,,G,]->[G,,G,][G,,G,][G,,G,]3/2- [G,,G,]3 | %14
[M:3/4] [D,F,D][D,F,D] [D,F,D] [D,G,D]2 [D,CD] | [G,B,D]6 |] %16
V:3
 x6 | x6 | x6 | x6 | x6 | x6 | x6 | x6 | x6 | z2 G .G3 | x6 | ^D2 D .D3 | x6 |[M:15/16] x15/2 | %14
[M:3/4] x6 | x6 |] %16
V:4
 x6 | x5[K:treble] x | x3[K:bass] x3 | x6 | x2[K:bass] x4 | x6 | x6 | x6 | x6 | G,6 | x6 | %11
 B,,2- [B,,-F,] [B,,F,]3 | x6 |[M:15/16] x15/2 |[M:3/4] x6 | x6 |] %16

